X:1
T:Title
%%score { 1 | 2 }
L:1/8
Q:1/4=132
M:6/4
K:Eb
V:1 treble nm="Grand Piano"
V:2 bass 
V:1
 G2 G2 G2 A4 c2 | B6 G4 G2 | E2 E2 E2 G4 G2 | [DF]12 | G2 G2 G2 A4 A2 |[M:7/4] B4 _d2 c6 c2 | %6
w: Eva~Schlottman * * * *||||||
[M:6/4] B2 B2 A2 [EG]4 [DF]2 | [B,E]12 | [Ge]2 [Ge]2 [Ge]2 [Ad]4 [DAc]2 | [EGB]6 [B,EG]4 [B,EG]2 | %10
w: ||||
 [FA]2 [EG]2 [FA]2 [Ac]4 [FA]2 | G12 | e2 e2 e2 e4 e2 | [Ece]4 [EAc]2 [EGB]4 [B,EG]2 | %14
w: ||||
 [B,EG]2 [EGB]2 [CFA]2 [B,EG]4 [A,DF]2 | [G,B,E]12 |] %16
w: ||
V:2
 [E,B,E]2 [E,B,E]2 [E,B,E]2 [E,CE]4 [E,A,E]2 | [E,G,E]6 [E,B,E]4 [E,B,E]2 | %2
 [E,G,B,]2 [E,G,B,]2 [E,G,B,]2 [E,B,E]4 [E,B,E]2 | [B,,B,]12 | %4
 [E,B,E]2 [E,B,E]2 [E,B,E]2 [F,B,D]4 [F,B,D]2 |[M:7/4][K:treble] [G,B,E]6 [A,E]6 [A,EA]2 | %6
[M:6/4] [B,EG]2 [B,EG]2 [B,F]2[K:bass] [B,,B,]4 [B,,A,]2 | [E,G,]12 | %8
 [E,B,]2 [E,B,]2 [E,B,]2 [B,,B,]4 B,,2 | E,6 E,4 E,2 | %10
 [B,,B,]2 [B,,B,]2 [B,,B,]2 [B,,B,]4 [B,,B,]2 | [E,B,E]12 | %12
 [E,G,E]2 [F,A,E]2[K:treble] [G,B,E]2 [A,CE]4 [A,CA]2 | A,4 A,2[K:bass] E,4 E,2 | %14
 E,2 E,2 A,,2 B,,4 B,,2 | E,12 |] %16

